cached_logos/open-virtual-network-ovn.svg

<svg xmlns="http://www.w3.org/2000/svg" role="img" xmlns:xlink="http://www.w3.org/1999/xlink" viewBox="-4.67 1.33 229.35 256.10"><title>Open Virtual Network (OVN) logo</title><defs><g id="glyph-0-0"><path d="M 2.898438 -20.917969 C 2.898438 -28.046875 4.8125 -33.628906 8.640625 -37.660156 C 12.46875 -41.695312 17.414062 -43.710938 23.46875 -43.710938 C 27.433594 -43.710938 31.007812 -42.765625 34.1875 -40.867188 C 37.371094 -38.972656 39.800781 -36.332031 41.46875 -32.945312 C 43.140625 -29.554688 43.976562 -25.710938 43.976562 -21.414062 C 43.976562 -17.058594 43.09375 -13.164062 41.335938 -9.726562 C 39.578125 -6.289062 37.089844 -3.6875 33.867188 -1.917969 C 30.644531 -0.152344 27.167969 0.734375 23.4375 0.734375 C 19.394531 0.734375 15.78125 -0.242188 12.597656 -2.195312 C 9.414062 -4.148438 7 -6.816406 5.359375 -10.195312 C 3.71875 -13.574219 2.898438 -17.148438 2.898438 -20.917969 Z M 8.757812 -20.828125 C 8.757812 -15.652344 10.152344 -11.578125 12.933594 -8.597656 C 15.71875 -5.621094 19.210938 -4.132812 23.40625 -4.132812 C 27.683594 -4.132812 31.207031 -5.632812 33.96875 -8.640625 C 36.734375 -11.648438 38.117188 -15.917969 38.117188 -21.445312 C 38.117188 -24.941406 37.523438 -27.992188 36.34375 -30.601562 C 35.160156 -33.207031 33.433594 -35.230469 31.15625 -36.664062 C 28.882812 -38.101562 26.328125 -38.820312 23.496094 -38.820312 C 19.472656 -38.820312 16.011719 -37.4375 13.109375 -34.671875 C 10.210938 -31.910156 8.757812 -27.296875 8.757812 -20.828125 Z M 8.757812 -20.828125"/></g><g id="glyph-0-1"><path d="M 3.953125 11.921875 L 3.953125 -31.113281 L 8.757812 -31.113281 L 8.757812 -27.070312 C 9.890625 -28.652344 11.171875 -29.839844 12.597656 -30.628906 C 14.023438 -31.421875 15.75 -31.816406 17.78125 -31.816406 C 20.4375 -31.816406 22.78125 -31.132812 24.8125 -29.765625 C 26.84375 -28.398438 28.378906 -26.46875 29.414062 -23.980469 C 30.449219 -21.488281 30.96875 -18.757812 30.96875 -15.789062 C 30.96875 -12.605469 30.394531 -9.742188 29.253906 -7.191406 C 28.109375 -4.644531 26.449219 -2.691406 24.273438 -1.332031 C 22.09375 0.0234375 19.804688 0.703125 17.402344 0.703125 C 15.644531 0.703125 14.066406 0.332031 12.671875 -0.410156 C 11.273438 -1.152344 10.125 -2.089844 9.226562 -3.222656 L 9.226562 11.921875 Z M 8.730469 -15.382812 C 8.730469 -11.378906 9.539062 -8.417969 11.164062 -6.503906 C 12.785156 -4.589844 14.746094 -3.632812 17.050781 -3.632812 C 19.394531 -3.632812 21.402344 -4.625 23.070312 -6.605469 C 24.742188 -8.589844 25.578125 -11.660156 25.578125 -15.820312 C 25.578125 -19.785156 24.761719 -22.753906 23.128906 -24.726562 C 21.5 -26.699219 19.550781 -27.6875 17.285156 -27.6875 C 15.039062 -27.6875 13.050781 -26.636719 11.324219 -24.535156 C 9.59375 -22.4375 8.730469 -19.382812 8.730469 -15.382812 Z M 8.730469 -15.382812"/></g><g id="glyph-0-2"><path d="M 25.253906 -10.019531 L 30.703125 -9.34375 C 29.84375 -6.160156 28.25 -3.691406 25.929688 -1.933594 C 23.605469 -0.175781 20.632812 0.703125 17.023438 0.703125 C 12.472656 0.703125 8.863281 -0.699219 6.195312 -3.5 C 3.53125 -6.304688 2.195312 -10.234375 2.195312 -15.292969 C 2.195312 -20.527344 3.546875 -24.589844 6.242188 -27.480469 C 8.9375 -30.371094 12.429688 -31.816406 16.726562 -31.816406 C 20.886719 -31.816406 24.289062 -30.398438 26.921875 -27.570312 C 29.558594 -24.738281 30.878906 -20.75 30.878906 -15.617188 C 30.878906 -15.304688 30.867188 -14.835938 30.851562 -14.210938 L 7.648438 -14.210938 C 7.84375 -10.792969 8.808594 -8.171875 10.546875 -6.359375 C 12.285156 -4.542969 14.453125 -3.632812 17.050781 -3.632812 C 18.984375 -3.632812 20.632812 -4.140625 22 -5.15625 C 23.367188 -6.171875 24.453125 -7.792969 25.253906 -10.019531 Z M 7.9375 -18.546875 L 25.3125 -18.546875 C 25.078125 -21.164062 24.414062 -23.125 23.320312 -24.433594 C 21.640625 -26.464844 19.460938 -27.480469 16.789062 -27.480469 C 14.367188 -27.480469 12.328125 -26.671875 10.679688 -25.046875 C 9.027344 -23.425781 8.117188 -21.257812 7.9375 -18.546875 Z M 7.9375 -18.546875"/></g><g id="glyph-0-3"><path d="M 3.953125 0 L 3.953125 -31.113281 L 8.703125 -31.113281 L 8.703125 -26.6875 C 10.988281 -30.105469 14.289062 -31.816406 18.601562 -31.816406 C 20.476562 -31.816406 22.203125 -31.480469 23.773438 -30.804688 C 25.347656 -30.132812 26.523438 -29.25 27.304688 -28.15625 C 28.085938 -27.0625 28.632812 -25.761719 28.945312 -24.257812 C 29.140625 -23.28125 29.238281 -21.570312 29.238281 -19.132812 L 29.238281 0 L 23.964844 0 L 23.964844 -18.925781 C 23.964844 -21.074219 23.757812 -22.679688 23.351562 -23.746094 C 22.941406 -24.808594 22.210938 -25.660156 21.167969 -26.292969 C 20.121094 -26.929688 18.898438 -27.246094 17.492188 -27.246094 C 15.246094 -27.246094 13.304688 -26.53125 11.675781 -25.109375 C 10.042969 -23.683594 9.226562 -20.976562 9.226562 -16.992188 L 9.226562 0 Z M 3.953125 0"/></g><g id="glyph-0-4"><path d="M 16.90625 0 L 0.265625 -42.949219 L 6.414062 -42.949219 L 17.578125 -11.75 C 18.476562 -9.25 19.226562 -6.90625 19.835938 -4.71875 C 20.5 -7.0625 21.269531 -9.40625 22.148438 -11.75 L 33.75 -42.949219 L 39.550781 -42.949219 L 22.734375 0 Z M 16.90625 0"/></g><g id="glyph-0-5"><path d="M 3.984375 -36.882812 L 3.984375 -42.949219 L 9.257812 -42.949219 L 9.257812 -36.882812 Z M 3.984375 0 L 3.984375 -31.113281 L 9.257812 -31.113281 L 9.257812 0 Z M 3.984375 0"/></g><g id="glyph-0-6"><path d="M 3.898438 0 L 3.898438 -31.113281 L 8.640625 -31.113281 L 8.640625 -26.398438 C 9.851562 -28.605469 10.972656 -30.058594 11.996094 -30.761719 C 13.023438 -31.464844 14.148438 -31.816406 15.382812 -31.816406 C 17.160156 -31.816406 18.964844 -31.25 20.800781 -30.117188 L 18.984375 -25.226562 C 17.695312 -25.988281 16.40625 -26.367188 15.117188 -26.367188 C 13.964844 -26.367188 12.929688 -26.019531 12.011719 -25.328125 C 11.09375 -24.632812 10.4375 -23.671875 10.046875 -22.441406 C 9.460938 -20.566406 9.171875 -18.515625 9.171875 -16.289062 L 9.171875 0 Z M 3.898438 0"/></g><g id="glyph-0-7"><path d="M 15.46875 -4.71875 L 16.230469 -0.0585938 C 14.746094 0.253906 13.417969 0.410156 12.246094 0.410156 C 10.332031 0.410156 8.847656 0.109375 7.792969 -0.5 C 6.738281 -1.105469 5.996094 -1.898438 5.566406 -2.886719 C 5.136719 -3.871094 4.921875 -5.945312 4.921875 -9.109375 L 4.921875 -27.011719 L 1.054688 -27.011719 L 1.054688 -31.113281 L 4.921875 -31.113281 L 4.921875 -38.820312 L 10.164062 -41.984375 L 10.164062 -31.113281 L 15.46875 -31.113281 L 15.46875 -27.011719 L 10.164062 -27.011719 L 10.164062 -8.820312 C 10.164062 -7.316406 10.257812 -6.347656 10.445312 -5.917969 C 10.628906 -5.488281 10.933594 -5.148438 11.351562 -4.890625 C 11.773438 -4.636719 12.375 -4.511719 13.15625 -4.511719 C 13.742188 -4.511719 14.511719 -4.578125 15.46875 -4.71875 Z M 15.46875 -4.71875"/></g><g id="glyph-0-8"><path d="M 24.34375 0 L 24.34375 -4.570312 C 21.921875 -1.054688 18.632812 0.703125 14.472656 0.703125 C 12.636719 0.703125 10.921875 0.351562 9.332031 -0.351562 C 7.738281 -1.054688 6.558594 -1.9375 5.785156 -3.003906 C 5.015625 -4.066406 4.472656 -5.371094 4.160156 -6.914062 C 3.945312 -7.949219 3.835938 -9.589844 3.835938 -11.835938 L 3.835938 -31.113281 L 9.109375 -31.113281 L 9.109375 -13.859375 C 9.109375 -11.105469 9.21875 -9.25 9.433594 -8.289062 C 9.765625 -6.902344 10.46875 -5.816406 11.542969 -5.023438 C 12.617188 -4.234375 13.945312 -3.835938 15.527344 -3.835938 C 17.109375 -3.835938 18.59375 -4.242188 19.980469 -5.054688 C 21.367188 -5.863281 22.347656 -6.96875 22.925781 -8.363281 C 23.5 -9.761719 23.789062 -11.789062 23.789062 -14.445312 L 23.789062 -31.113281 L 29.0625 -31.113281 L 29.0625 0 Z M 24.34375 0"/></g><g id="glyph-0-9"><path d="M 24.257812 -3.835938 C 22.304688 -2.175781 20.425781 -1.007812 18.617188 -0.320312 C 16.8125 0.363281 14.875 0.703125 12.804688 0.703125 C 9.386719 0.703125 6.757812 -0.132812 4.921875 -1.800781 C 3.085938 -3.472656 2.167969 -5.605469 2.167969 -8.203125 C 2.167969 -9.726562 2.515625 -11.117188 3.207031 -12.378906 C 3.902344 -13.636719 4.808594 -14.648438 5.933594 -15.410156 C 7.054688 -16.171875 8.320312 -16.75 9.726562 -17.140625 C 10.761719 -17.414062 12.324219 -17.675781 14.414062 -17.929688 C 18.671875 -18.4375 21.804688 -19.042969 23.820312 -19.746094 C 23.839844 -20.46875 23.847656 -20.929688 23.847656 -21.125 C 23.847656 -23.273438 23.351562 -24.785156 22.351562 -25.664062 C 21.003906 -26.855469 19.003906 -27.453125 16.347656 -27.453125 C 13.867188 -27.453125 12.035156 -27.015625 10.855469 -26.148438 C 9.671875 -25.277344 8.796875 -23.742188 8.234375 -21.53125 L 3.078125 -22.234375 C 3.546875 -24.441406 4.316406 -26.226562 5.390625 -27.582031 C 6.464844 -28.941406 8.015625 -29.984375 10.046875 -30.71875 C 12.078125 -31.449219 14.433594 -31.816406 17.109375 -31.816406 C 19.765625 -31.816406 21.921875 -31.503906 23.585938 -30.878906 C 25.246094 -30.253906 26.464844 -29.46875 27.246094 -28.519531 C 28.027344 -27.574219 28.574219 -26.375 28.886719 -24.929688 C 29.0625 -24.03125 29.148438 -22.414062 29.148438 -20.070312 L 29.148438 -13.039062 C 29.148438 -8.136719 29.261719 -5.035156 29.488281 -3.734375 C 29.710938 -2.4375 30.15625 -1.191406 30.820312 0 L 25.3125 0 C 24.765625 -1.09375 24.414062 -2.375 24.257812 -3.835938 Z M 23.820312 -15.617188 C 21.90625 -14.835938 19.03125 -14.171875 15.203125 -13.625 C 13.035156 -13.3125 11.503906 -12.960938 10.605469 -12.570312 C 9.707031 -12.179688 9.015625 -11.605469 8.523438 -10.855469 C 8.035156 -10.101562 7.792969 -9.265625 7.792969 -8.351562 C 7.792969 -6.945312 8.324219 -5.773438 9.390625 -4.835938 C 10.453125 -3.898438 12.011719 -3.429688 14.0625 -3.429688 C 16.09375 -3.429688 17.898438 -3.871094 19.484375 -4.761719 C 21.066406 -5.648438 22.226562 -6.867188 22.96875 -8.40625 C 23.535156 -9.597656 23.820312 -11.359375 23.820312 -13.679688 Z M 23.820312 -15.617188"/></g><g id="glyph-0-10"><path d="M 3.835938 0 L 3.835938 -42.949219 L 9.109375 -42.949219 L 9.109375 0 Z M 3.835938 0"/></g><g id="glyph-0-11"><path d="M 4.570312 0 L 4.570312 -42.949219 L 10.398438 -42.949219 L 32.960938 -9.226562 L 32.960938 -42.949219 L 38.40625 -42.949219 L 38.40625 0 L 32.578125 0 L 10.019531 -33.75 L 10.019531 0 Z M 4.570312 0"/></g><g id="glyph-0-12"><path d="M 9.695312 0 L 0.175781 -31.113281 L 5.625 -31.113281 L 10.578125 -13.15625 L 12.421875 -6.476562 C 12.5 -6.808594 13.039062 -8.945312 14.03125 -12.890625 L 18.984375 -31.113281 L 24.40625 -31.113281 L 29.0625 -13.066406 L 30.617188 -7.117188 L 32.402344 -13.125 L 37.734375 -31.113281 L 42.859375 -31.113281 L 33.132812 0 L 27.65625 0 L 22.703125 -18.632812 L 21.503906 -23.9375 L 15.203125 0 Z M 9.695312 0"/></g><g id="glyph-0-13"><path d="M 1.992188 -15.554688 C 1.992188 -21.316406 3.59375 -25.585938 6.796875 -28.359375 C 9.472656 -30.664062 12.734375 -31.816406 16.582031 -31.816406 C 20.859375 -31.816406 24.355469 -30.414062 27.070312 -27.613281 C 29.785156 -24.808594 31.140625 -20.9375 31.140625 -15.996094 C 31.140625 -11.992188 30.542969 -8.84375 29.339844 -6.546875 C 28.140625 -4.253906 26.390625 -2.46875 24.097656 -1.203125 C 21.800781 0.0664062 19.296875 0.703125 16.582031 0.703125 C 12.226562 0.703125 8.707031 -0.695312 6.019531 -3.484375 C 3.335938 -6.277344 1.992188 -10.304688 1.992188 -15.554688 Z M 7.414062 -15.554688 C 7.414062 -11.570312 8.28125 -8.589844 10.019531 -6.605469 C 11.757812 -4.625 13.945312 -3.632812 16.582031 -3.632812 C 19.199219 -3.632812 21.375 -4.628906 23.117188 -6.621094 C 24.855469 -8.613281 25.722656 -11.648438 25.722656 -15.734375 C 25.722656 -19.582031 24.847656 -22.496094 23.101562 -24.476562 C 21.351562 -26.460938 19.179688 -27.453125 16.582031 -27.453125 C 13.945312 -27.453125 11.757812 -26.464844 10.019531 -24.492188 C 8.28125 -22.519531 7.414062 -19.539062 7.414062 -15.554688 Z M 7.414062 -15.554688"/></g><g id="glyph-0-14"><path d="M 3.984375 0 L 3.984375 -42.949219 L 9.257812 -42.949219 L 9.257812 -18.457031 L 21.738281 -31.113281 L 28.5625 -31.113281 L 16.671875 -19.570312 L 29.765625 0 L 23.261719 0 L 12.976562 -15.90625 L 9.257812 -12.335938 L 9.257812 0 Z M 3.984375 0"/></g><g id="glyph-0-15"><path d="M 14.03125 12.625 C 11.121094 8.953125 8.664062 4.65625 6.648438 -0.265625 C 4.636719 -5.1875 3.632812 -10.28125 3.632812 -15.554688 C 3.632812 -20.203125 4.382812 -24.65625 5.890625 -28.914062 C 7.648438 -33.855469 10.359375 -38.78125 14.03125 -43.679688 L 17.8125 -43.679688 C 15.449219 -39.617188 13.886719 -36.71875 13.125 -34.980469 C 11.933594 -32.285156 10.996094 -29.472656 10.3125 -26.542969 C 9.472656 -22.890625 9.054688 -19.21875 9.054688 -15.527344 C 9.054688 -6.132812 11.972656 3.25 17.8125 12.625 Z M 14.03125 12.625"/></g><g id="glyph-0-16"><path d="M 7.414062 12.625 L 3.632812 12.625 C 9.472656 3.25 12.390625 -6.132812 12.390625 -15.527344 C 12.390625 -19.199219 11.972656 -22.84375 11.132812 -26.453125 C 10.46875 -29.382812 9.539062 -32.195312 8.351562 -34.890625 C 7.589844 -36.648438 6.015625 -39.578125 3.632812 -43.679688 L 7.414062 -43.679688 C 11.085938 -38.777344 13.796875 -33.859375 15.554688 -28.914062 C 17.058594 -24.65625 17.8125 -20.203125 17.8125 -15.554688 C 17.8125 -10.28125 16.800781 -5.1875 14.78125 -0.265625 C 12.757812 4.65625 10.304688 8.953125 7.414062 12.625 Z M 7.414062 12.625"/></g></defs><g><use y="50" xlink:href="#glyph-0-0"/><use x="46.67" y="50" xlink:href="#glyph-0-1"/><use x="80.039" y="50" xlink:href="#glyph-0-2"/><use x="113.408" y="50" xlink:href="#glyph-0-3"/></g><g><use y="120" xlink:href="#glyph-0-4"/><use x="40.02" y="120" xlink:href="#glyph-0-5"/><use x="53.35" y="120" xlink:href="#glyph-0-6"/><use x="73.33" y="120" xlink:href="#glyph-0-7"/><use x="90" y="120" xlink:href="#glyph-0-8"/><use x="123.369" y="120" xlink:href="#glyph-0-9"/><use x="156.738" y="120" xlink:href="#glyph-0-10"/></g><g><use y="180" xlink:href="#glyph-0-11"/><use x="43.33" y="180" xlink:href="#glyph-0-2"/><use x="76.699" y="180" xlink:href="#glyph-0-7"/><use x="93.369" y="180" xlink:href="#glyph-0-12"/><use x="136.699" y="180" xlink:href="#glyph-0-13"/><use x="170.068" y="180" xlink:href="#glyph-0-6"/><use x="190.049" y="180" xlink:href="#glyph-0-14"/></g><g><use y="240" xlink:href="#glyph-0-15"/><use x="19.98" y="240" xlink:href="#glyph-0-0"/><use x="66.65" y="240" xlink:href="#glyph-0-4"/><use x="106.67" y="240" xlink:href="#glyph-0-11"/><use x="150" y="240" xlink:href="#glyph-0-16"/></g></svg>

<svg xmlns="http://www.w3.org/2000/svg" role="img" xmlns:xlink="http://www.w3.org/1999/xlink" viewBox="-4.67 1.33 229.35 256.10"><title>Open Virtual Network (OVN) logo</title><defs><path d="M2.89844-20.91797c0-7.1289 1.91406-12.71094 5.74218-16.74219 3.82813-4.03515 8.77344-6.05078 14.82813-6.05078 3.96484 0 7.53906.94532 10.71875 2.84375 3.1836 1.89453 5.61328 4.53516 7.28125 7.92188 1.67188 3.39062 2.50781 7.23437 2.50781 11.53125 0 4.35547-.88281 8.25-2.64062 11.6875-1.75782 3.4375-4.2461 6.03906-7.46875 7.8086C30.64453-.15235 27.16797.73436 23.4375.73436c-4.04297 0-7.65625-.97656-10.83984-2.92968-3.1836-1.95313-5.59766-4.6211-7.23828-8-1.64063-3.3789-2.46094-6.95313-2.46094-10.72266zm5.85937.08985c0 5.17578 1.39453 9.25 4.17578 12.23046 2.78516 2.97657 6.27735 4.46485 10.47266 4.46485 4.27734 0 7.80078-1.5 10.5625-4.50781 2.76563-3.00782 4.14844-7.27735 4.14844-12.8047 0-3.49609-.59375-6.54687-1.77344-9.15624-1.1836-2.60547-2.91016-4.6289-5.1875-6.0625-2.27344-1.4375-4.82813-2.15625-7.66016-2.15625-4.02343 0-7.48437 1.38281-10.38671 4.14843-2.89844 2.76172-4.35157 7.375-4.35157 13.84376zm0 0" id="a"/><path d="M3.95313 11.92188v-43.03516H8.7578v4.04297c1.13282-1.58203 2.41407-2.76953 3.83985-3.5586 1.42578-.79296 3.15234-1.1875 5.18359-1.1875 2.65625 0 5 .6836 7.03125 2.05079 2.03125 1.36718 3.5664 3.29687 4.60156 5.78515 1.03516 2.49219 1.55469 5.22266 1.55469 8.1914 0 3.1836-.57422 6.04688-1.71484 8.59766-1.14454 2.54688-2.8047 4.5-4.98047 5.85938C22.09375.02344 19.80469.70313 17.40234.70313c-1.7578 0-3.33593-.3711-4.73046-1.11329-1.39844-.74218-2.54688-1.67968-3.44532-2.8125v15.14454zm4.77734-27.3047c0 4.00391.8086 6.96485 2.4336 8.87891 1.62109 1.91407 3.58202 2.8711 5.88671 2.8711 2.34375 0 4.35156-.99219 6.01953-2.97266 1.67188-1.98437 2.50782-5.05469 2.50782-9.21484 0-3.96485-.81641-6.9336-2.44922-8.90625-1.62891-1.97266-3.57813-2.96094-5.84375-2.96094-2.2461 0-4.23438 1.05078-5.96094 3.15234-1.73047 2.09766-2.59375 5.15235-2.59375 9.15235zm0 0" id="b"/><path d="M25.2539-10.01953l5.44922.67578c-.85937 3.1836-2.45312 5.65234-4.77343 7.41016C23.60547-.1758 20.6328.70312 17.02344.70312 12.47266.70313 8.86328-.69921 6.1953-3.5c-2.66406-2.80469-4-6.73438-4-11.79297 0-5.23437 1.35156-9.29687 4.04688-12.1875 2.69531-2.89062 6.1875-4.33594 10.48437-4.33594 4.16016 0 7.5625 1.41797 10.19532 4.2461C29.55859-24.73828 30.8789-20.75 30.8789-15.6172c0 .3125-.01172.78125-.02735 1.40625H7.64844c.19531 3.41797 1.16015 6.03907 2.89844 7.85157 1.73828 1.8164 3.90625 2.72656 6.5039 2.72656 1.9336 0 3.58203-.50781 4.94922-1.52344 1.36719-1.01563 2.45313-2.63672 3.2539-4.86328zM7.9375-18.54688h17.375c-.23438-2.61718-.89844-4.57812-1.99219-5.88671-1.67968-2.03125-3.85937-3.04688-6.53125-3.04688-2.42187 0-4.46093.8086-6.10937 2.4336-1.65235 1.62109-2.5625 3.78906-2.74219 6.5zm0 0" id="c"/><path d="M3.95313 0v-31.11328h4.75v4.42578c2.28515-3.41797 5.58593-5.1289 9.89843-5.1289 1.875 0 3.60157.33593 5.17188 1.01171 1.57422.67188 2.75 1.55469 3.53125 2.64844s1.32812 2.39453 1.64062 3.89844c.19532.97656.29297 2.6875.29297 5.125V0h-5.27344v-18.92578c0-2.14844-.20703-3.7539-.61328-4.82031-.41015-1.0625-1.14062-1.91407-2.1836-2.54688-1.04687-.63672-2.26952-.95312-3.67577-.95312-2.2461 0-4.1875.71484-5.8164 2.13671-1.63282 1.42579-2.44923 4.13282-2.44923 8.1172V0zm0 0" id="d"/><path d="M16.90625 0L.26562-42.94922h6.14844L17.57812-11.75c.89844 2.5 1.64844 4.84375 2.25782 7.03125.66406-2.34375 1.4336-4.6875 2.3125-7.03125L33.75-42.94922h5.80078L22.73438 0zm0 0" id="e"/><path d="M3.98438-36.88281v-6.0664H9.2578v6.0664zM3.98438 0v-31.11328H9.2578V0zm0 0" id="f"/><path d="M3.89844 0v-31.11328h4.74218v4.71484c1.21094-2.20703 2.33204-3.66015 3.35547-4.36328 1.02735-.70312 2.15235-1.05469 3.38672-1.05469 1.77735 0 3.58203.56641 5.41797 1.69922l-1.8164 4.89063c-1.28907-.76172-2.57813-1.14063-3.8672-1.14063-1.15234 0-2.1875.34766-3.10546 1.03907-.91797.6953-1.57422 1.65624-1.96485 2.88671-.58593 1.875-.875 3.92579-.875 6.15235V0zm0 0" id="g"/><path d="M15.46875-4.71875l.76172 4.66016c-1.48438.3125-2.8125.46875-3.98438.46875-1.91406 0-3.39843-.30079-4.45312-.91016-1.05469-.60547-1.79688-1.39844-2.22656-2.38672-.4297-.98437-.64454-3.0586-.64454-6.22266v-17.90234H1.0547v-4.10156h3.86719v-7.70703l5.24218-3.16407v10.8711h5.30469v4.10156h-5.30469v18.1914c0 1.50391.09375 2.47266.28125 2.90235.1836.42969.48828.76953.90625 1.02735.42188.2539 1.02344.3789 1.80469.3789.58594 0 1.35547-.0664 2.3125-.20703zm0 0" id="h"/><path d="M24.34375 0v-4.57031C21.92187-1.0547 18.63281.70313 14.47265.70313c-1.83593 0-3.55077-.35157-5.14062-1.0547C7.73828-1.05468 6.5586-1.9375 5.78516-3.0039c-.76954-1.0625-1.3125-2.36718-1.625-3.91015-.21485-1.03516-.32422-2.67578-.32422-4.92188v-19.27734h5.27343v17.2539c0 2.75391.10938 4.60938.32422 5.57032.33203 1.38672 1.03516 2.47265 2.10938 3.26562 1.07422.78906 2.40234 1.1875 3.98437 1.1875s3.06641-.40625 4.45313-1.21875c1.38672-.8086 2.36719-1.91406 2.94531-3.3086.57422-1.39843.86328-3.42577.86328-6.08202v-16.66797h5.27344V0zm0 0" id="i"/><path d="M24.25781-3.83594C22.3047-2.17578 20.42578-1.0078 18.6172-.3203 16.8125.36329 14.875.70313 12.80469.70313c-3.41797 0-6.04688-.83594-7.88282-2.50391-1.83593-1.67188-2.7539-3.80469-2.7539-6.40235 0-1.52343.34766-2.91406 1.03906-4.17578.69531-1.2578 1.60156-2.26953 2.72656-3.03125 1.1211-.76172 2.38672-1.33984 3.79297-1.73047 1.03516-.27343 2.59766-.53515 4.6875-.78906 4.25782-.50781 7.39063-1.11328 9.40625-1.8164.01953-.72266.02735-1.1836.02735-1.37891 0-2.14844-.4961-3.66016-1.4961-4.53906-1.34765-1.1914-3.34765-1.78907-6.0039-1.78907-2.48047 0-4.3125.4375-5.4922 1.3047-1.18359.87109-2.05859 2.40624-2.62109 4.61718l-5.15625-.70313c.46875-2.20703 1.23829-3.99218 2.3125-5.34765 1.07422-1.35938 2.625-2.40235 4.65625-3.13672 2.03125-.73047 4.38672-1.09766 7.0625-1.09766 2.65626 0 4.8125.3125 6.47657.9375 1.66015.625 2.8789 1.41016 3.66015 2.35938.78125.94531 1.32813 2.14453 1.64063 3.58984.17578.89844.26172 2.51563.26172 4.85938v7.03125c0 4.90234.11328 8.0039.33984 9.30468C29.71094-2.4375 30.15625-1.1914 30.82031 0H25.3125c-.54688-1.09375-.89844-2.375-1.05469-3.83594zm-.4375-11.78125c-1.91406.78125-4.78906 1.44532-8.61718 1.99219-2.16797.3125-3.69922.66406-4.59766 1.05469-.89844.39062-1.58985.96484-2.08203 1.71484-.48828.7539-.73047 1.58985-.73047 2.5039 0 1.40626.53125 2.57813 1.59765 3.51563 1.0625.9375 2.6211 1.40625 4.67188 1.40625 2.03125 0 3.83594-.4414 5.42188-1.33203 1.58203-.88672 2.74218-2.10547 3.48437-3.64453.5664-1.1914.85156-2.95313.85156-5.27344zm0 0" id="j"/><path d="M3.83594 0v-42.94922h5.27343V0zm0 0" id="k"/><path d="M4.57031 0v-42.94922h5.82813l22.5625 33.72266v-33.72266h5.44531V0h-5.82813L10.01954-33.75V0zm0 0" id="l"/><path d="M9.69531 0L.17578-31.11328H5.625l4.95313 17.95703 1.84375 6.67969c.07812-.33203.61718-2.46875 1.60937-6.41406l4.95313-18.22266h5.42187l4.65625 18.04687 1.55469 5.94922 1.78515-6.00781 5.33203-17.98828h5.125L33.13282 0h-5.47656l-4.95313-18.63281-1.19921-5.30469L15.20312 0zm0 0" id="m"/><path d="M1.99219-15.55469c0-5.76172 1.60156-10.03125 4.80468-12.80468 2.67579-2.3047 5.9375-3.45704 9.78516-3.45704 4.27735 0 7.77344 1.40235 10.48828 4.20313 2.71485 2.80469 4.07032 6.67578 4.07032 11.61719 0 4.0039-.59766 7.15234-1.80079 9.44922-1.19921 2.29296-2.94921 4.07812-5.24218 5.34375C21.80078.0664 19.29687.70311 16.58203.70311c-4.35547 0-7.875-1.39843-10.5625-4.1875-2.6836-2.79296-4.02734-6.8203-4.02734-12.0703zm5.42187 0c0 3.98438.86719 6.96485 2.60547 8.94922 1.73828 1.98047 3.92578 2.97266 6.5625 2.97266 2.61719 0 4.79297-.9961 6.53516-2.98828 1.73828-1.9922 2.60547-5.02735 2.60547-9.11329 0-3.84765-.875-6.76171-2.6211-8.74218-1.75-1.98438-3.92187-2.97657-6.51953-2.97657-2.63672 0-4.82422.98829-6.5625 2.96094-1.73828 1.97266-2.60547 4.95313-2.60547 8.9375zm0 0" id="n"/><path d="M3.98438 0v-42.94922H9.2578v24.49219l12.48047-12.65625h6.82422L16.67187-19.57031 29.76563 0h-6.50391L12.97656-15.90625l-3.71875 3.57031V0zm0 0" id="o"/><path d="M14.03125 12.625C11.12109 8.95312 8.66406 4.65625 6.64844-.26563 4.63672-5.1875 3.6328-10.28125 3.6328-15.55468c0-4.64843.75-9.10156 2.25781-13.35937 1.75782-4.9414 4.46875-9.86719 8.14063-14.76563h3.78125c-2.36328 4.0625-3.92578 6.96094-4.6875 8.69922-1.1914 2.69531-2.1289 5.50781-2.8125 8.4375-.83984 3.65235-1.25781 7.32422-1.25781 11.01563 0 9.39453 2.91797 18.77734 8.75781 28.15234zm0 0" id="p"/><path d="M7.41406 12.625H3.63281c5.83985-9.375 8.75782-18.75781 8.75782-28.15234 0-3.67188-.41797-7.31641-1.25782-10.92578-.66406-2.9297-1.59375-5.7422-2.78125-8.4375-.76172-1.75782-2.33593-4.6875-4.71875-8.78907h3.78125c3.67188 4.90235 6.38281 9.82032 8.14063 14.76563 1.5039 4.25781 2.25781 8.71093 2.25781 13.35937 0 5.27344-1.01172 10.36719-3.03125 15.28907-2.02344 4.92187-4.47656 9.21875-7.36719 12.89062zm0 0" id="q"/></defs><use y="50" xlink:href="#a"/><use x="46.67" y="50" xlink:href="#b"/><use x="80.039" y="50" xlink:href="#c"/><use x="113.408" y="50" xlink:href="#d"/><g><use y="120" xlink:href="#e"/><use x="40.02" y="120" xlink:href="#f"/><use x="53.35" y="120" xlink:href="#g"/><use x="73.33" y="120" xlink:href="#h"/><use x="90" y="120" xlink:href="#i"/><use x="123.369" y="120" xlink:href="#j"/><use x="156.738" y="120" xlink:href="#k"/></g><g><use y="180" xlink:href="#l"/><use x="43.33" y="180" xlink:href="#c"/><use x="76.699" y="180" xlink:href="#h"/><use x="93.369" y="180" xlink:href="#m"/><use x="136.699" y="180" xlink:href="#n"/><use x="170.068" y="180" xlink:href="#g"/><use x="190.049" y="180" xlink:href="#o"/></g><g><use y="240" xlink:href="#p"/><use x="19.98" y="240" xlink:href="#a"/><use x="66.65" y="240" xlink:href="#e"/><use x="106.67" y="240" xlink:href="#l"/><use x="150" y="240" xlink:href="#q"/></g></svg>
